remix/Document/folder-shield-2-fill.svg

<svg viewBox="0 0 24 24" fill="currentColor" xmlns="http://www.w3.org/2000/svg"><path d="M22 10H12V17.3823C12 18.7906 12.6315 20.1159 13.7054 21H3C2.44772 21 2 20.5523 2 20V4C2 3.44772 2.44772 3 3 3H10.4142L12.4142 5H21C21.5523 5 22 5.44772 22 6V10ZM14 12H22V17.3823C22 18.2786 21.5544 19.1156 20.8125 19.6128L18 21.4978L15.1875 19.6128C14.4456 19.1156 14 18.2786 14 17.3823V12Z"/></svg>

<svg viewBox="0 0 24 24" xmlns="http://www.w3.org/2000/svg"><path fill="none" d="M0 0h24v24H0Z"/><path d="M22 10H12v7.38c0 1.4.63 2.73 1.705 3.61H3v0c-.56 0-1-.45-1-1v-16 0c0-.56.44-1 1-1h7.414l2 2H21v0c.55 0 1 .44 1 1v4Zm-8 2h8v5.38c0 .89-.45 1.73-1.19 2.23l-2.82 1.88 -2.82-1.89 -.001 0c-.75-.5-1.19-1.34-1.19-2.24v-5.39Z"/></svg>
